X:1
T:Risen for Me
T:Risen for Me
T:James Henry Fillmore, Sr.
T:Lucinda M. Beal Bateman, 1891
T:Public Domain Courtesy of the Cyber Hymnal™
T:Public Domain Courtesy of the Cyber Hymnal™
C:James Henry Fillmore, Sr.
Z:Public Domain
Z:Courtesy of the Cyber Hymnal™
%%score 1 ( 2 3 )
L:1/8
Q:1/4=110
M:3/4
K:C
V:1 treble 
V:2 bass 
V:3 bass 
V:1
 [EG]>[EG] | [EG]2 [CE]2 [EG]2 x4 | [Ec]4 [Ec]>[Gc] x4 | [Ac]2 [GB]2 [FA]2 x4 | %4
w: 1.~There’s a|song on my|lips, There’s a|song in my|
w: 2.~There’s a|light in my|sky, Since the|break- ing of|
w: 3.~There is|joy in my|heart All the|long, wea- ry|
 [EG]4 [EG]>[EG] x4 | [FA]2 [EG]2 [CE]2 x4 | [FA]2 [EG]2 [CE]2 x4 | [CE]2 [B,D]2 [A,C]2 | %8
w: soul, Tho’ the|waves of dis-|tress Deep- ly|round me may|
w: day, When the|seal rent in|twain And the|stone rolled a-|
w: day, For the|storm o- ver-|past And the|clouds rolled a-|
 [B,D]4 [FG]>[FG] x4 | [EG]2 [CE]2 [EG]2 x4 | [Ec]4 [Ge]>[Ge] x4 | [Fd]2 [Ac]2 [FA]2 x4 | %12
w: roll; For I|know whom I|trust, Tho’ the|way may be|
w: way; For an|an- gel spoke|peace To my|spir- it’s a-|
w: way; There’s a|rose for each|thorn, And a|gain for each|
 !fermata![Ac]4 [GB][FA] x4 | [EG]2 [CE]2 [DF]2 x4 | [EG]4 [Ec]>[Ec] x4 | [DB]2 [Ec]2 [Fd]2 x2 | %16
w: dim, I shall|safe- ly go|home, If I|cling close to|
w: larm: He is|ris- en for|thee; There is|no- thing to|
w: loss, Since my|Sav- ior Him-|self Gained a|crown by the|
 !fermata![Ec]4 ||"^Refrain" [Ec]>[Fd] | [Ge]2 [Ec]2 [^DA]2 | [EG]4 [Ec]>[Fd] | %20
w: Him.||||
w: harm.|I will|not be a-|fraid When the|
w: cross.||||
 [Ge]2 [Ec]2 [^DA]2 | [EG]4 [EA][EB] | [Ec]2 [Ec]2 [EB]2 | [Ec]2 [Ec]2 [^Fd]2 | [Ge]2 [Ec]2 [Fd]2 | %25
w: |||||
w: dark grave I|see, For my|Sav- ior has|died And has|ris- en for|
w: |||||
 !fermata![Ec]4 |] %26
w: |
w: me.|
w: |
V:2
 z2 | z2 x8 | z2 x8 | z2 x8 | z2 x8 | z2 x8 | z2 x8 | z2 [D,^F,]2 [D,F,]2 | z2 x8 | z2 x8 | z2 x8 | %11
 z2 x8 | z2 x8 | z2 x8 | z2 x8 | z2 [G,B,]2 x4 | !fermata![C,G,]4 || [C,G,]>[C,G,] | %18
 [C,C]2 [C,G,]2 [C,^F,]2 | [C,G,]4 [C,G,]>[C,G,] | [C,C]2 [C,G,]2 [C,^F,]2 | [C,G,]4 [CE][B,D] | %22
 [A,C]2 A,2 [E,^G,]2 | A,2 [=A,C]2 [_A,C]2 | [G,C]2 G,2 [G,,G,]2 | !fermata![C,G,]4 |] %26
V:3
 x2 | (C,6 G,2) C2 | (C,6 G,2) C2 | ([F,,F,]6 A,2) C2 | (C,6 G,2) C2 | (C,6 G,2) G,2 | %6
 (C,6 G,2) G,2 | A,,6 | (G,,6 G,2) G,2 | (C,6 G,2) C2 | (C,6 G,2) C2 | (F,6 A,2) C2 | %12
 (F,6 A,2) C2 | (C,6 G,2) G,2 | (C,6 G,2) G,2 | (G,,6 G,2) | x4 || x2 | x6 | x6 | x6 | x6 | %22
 x2 A,2 x2 | _A,2 x4 | x2 G,2 x2 | x4 |] %26

